X:1
T:Title
%%score 1 { 2 | 3 }
L:1/8
Q:1/4=110
M:2/2
K:G
V:1 treble nm="Grand Piano, Soprano"
V:2 treble nm="Choir Pad, Varaždin, Havergal"
V:3 bass 
V:1
 [Bd]2 [Ac]2 [GB]2 [FA]2 | [FB]4 [EG]4 | E2 [CF]2 [EG]2 [EA]2 | [FB]8 | [GB]2 [FA]2 [EG]2 [^DF]2 | %5
w: By~Frances~Ridley~Havergal~(1836\-1879) * * *|||||
 [EG]4 [_B,E]4 | [B,D]2 [B,E]2 [CF]2 [CA]2 | [B,G]8 |] %8
w: |||
V:2
 D2 D2 D2 C2 | D4 B,4 | C2 C2 B,2 E2 | ^D8 | D2 C2[K:bass] B,2 A,2 | G,4 G,4 | G,2 G,2 A,2 F,2 | %7
 G,8 |] %8
V:3
 G,2 F,2 G,2 D,2 | B,,4 E,4 | C,2 A,,2 E,2 C,2 | B,,8 | G,,2 D,2 E,2 B,,2 | E,4 ^C,4 | %6
 D,2 D,2 D,2 D,2 | G,,8 |] %8

